img/autres/scroll_icon.svg

<svg xmlns="http://www.w3.org/2000/svg" width="44" height="96" fill="none"><path fill="#000" d="M22 .5C10.3.5.8 10 .8 21.7v20.2c0 11.7 9.5 21.2 21.2 21.2s21.2-9.5 21.2-21.2V21.7C43.2 10 33.7.5 22 .5Zm15.2 41.4c0 8.4-6.8 15.2-15.2 15.2-8.4 0-15.2-6.8-15.2-15.2V21.7c0-8.4 6.8-15.2 15.2-15.2 8.4 0 15.2 6.8 15.2 15.2v20.2Z"/><path fill="#000" d="M22 13.1c-1.7 0-3 1.3-3 3v8.1c0 1.7 1.3 3 3 3s3-1.3 3-3v-8.1c0-1.6-1.3-3-3-3ZM28.2 67.6 22 73.9l-6.2-6.2c-1.2-1.2-3.1-1.2-4.3 0-1.2 1.2-1.2 3.1 0 4.3l8.4 8.4c.6.6 1.4.9 2.1.9.7 0 1.5-.3 2.1-.9l8.4-8.4c1.2-1.2 1.2-3.1 0-4.3-1.2-1.2-3.1-1.2-4.3-.1Z"/><path fill="#000" d="M28.2 82 22 88.2 15.8 82c-1.2-1.2-3.1-1.2-4.3 0-1.2 1.2-1.2 3.1 0 4.3l8.4 8.4c.6.6 1.4.9 2.1.9.7 0 1.5-.3 2.1-.9l8.4-8.4c1.2-1.2 1.2-3.1 0-4.3-1.2-1.2-3.1-1.2-4.3 0Z"/></svg>

<svg width="44" height="96" viewBox="0 0 44 96" fill="none" xmlns="http://www.w3.org/2000/svg">
<path d="M22 0.5C10.3 0.5 0.799988 10 0.799988 21.7V41.9C0.799988 53.6 10.3 63.1 22 63.1C33.7 63.1 43.2 53.6 43.2 41.9V21.7C43.2 10 33.7 0.5 22 0.5ZM37.2 41.9C37.2 50.3 30.4 57.1 22 57.1C13.6 57.1 6.79999 50.3 6.79999 41.9V21.7C6.79999 13.3 13.6 6.5 22 6.5C30.4 6.5 37.2 13.3 37.2 21.7V41.9Z" fill="black"/>
<path d="M22 13.1C20.3 13.1 19 14.4 19 16.1V24.2C19 25.9 20.3 27.2 22 27.2C23.7 27.2 25 25.9 25 24.2V16.1C25 14.5 23.7 13.1 22 13.1Z" fill="black"/>
<path d="M28.2 67.6L22 73.9L15.8 67.7C14.6 66.5 12.7 66.5 11.5 67.7C10.3 68.9 10.3 70.8 11.5 72L19.9 80.4C20.5 81 21.3 81.3 22 81.3C22.7 81.3 23.5 81 24.1 80.4L32.5 72C33.7 70.8 33.7 68.9 32.5 67.7C31.3 66.5 29.4 66.5 28.2 67.6Z" fill="black"/>
<path d="M28.2 82L22 88.2L15.8 82C14.6 80.8 12.7 80.8 11.5 82C10.3 83.2 10.3 85.1 11.5 86.3L19.9 94.7C20.5 95.3 21.3 95.6 22 95.6C22.7 95.6 23.5 95.3 24.1 94.7L32.5 86.3C33.7 85.1 33.7 83.2 32.5 82C31.3 80.8 29.4 80.8 28.2 82Z" fill="black"/>
</svg>
